X: 497
T: THE PEACE OF THE VALLEY
B: O'Neill's 497
Z: 1999 by John Chambers <jc@trillian.mit.edu>
N: "Moderate"
N: Collected by "(Balfe)"
N: 14 bars.
M: C
L: a/8
K:C
zG \
|G2AG GEGc|e6 e2|e2dc B2dG|c4 z2||
(G>A) \
|B2cBB2dcB|e2g2- 3gfe 3edc|cB2G cB2A|G4 z2zG|
|G2AG GEGc|e2dc Hf2ga|G2cd cB2G|g4- gf/e/ d/c/B/A/ \
|A2HG2 efedHfe|c4 z2|]
